svgs/regular/box-check.svg

<svg xmlns="http://www.w3.org/2000/svg" viewBox="0 0 448 512"><!--! Font Awesome Pro 6.0.0-alpha3 by @fontawesome - https://fontawesome.com License - https://fontawesome.com/license (Commercial License) --><path d="M183 376.1C187.7 381.7 193.9 384 200 384s12.28-2.344 16.97-7.031l96-96c9.375-9.375 9.375-24.56 0-33.94s-24.56-9.375-33.94 0L200 326.1L168.1 295c-9.375-9.375-24.56-9.375-33.94 0s-9.375 24.56 0 33.94L183 376.1zM439.8 145.4l-45.43-80.76C383 44.47 361.7 32 338.6 32H109.4c-23.12 0-44.45 12.47-55.78 32.62L8.219 145.4C2.83 154.1 0 165.8 0 176.8V416c0 35.35 28.65 64 64 64h320c35.35 0 64-28.65 64-64V176.8C448 165.8 445.2 154.1 439.8 145.4zM247 80h91.55c5.771 0 11.12 3.125 13.95 8.154l39.67 70.52h-145.2V80zM95.48 88.15C98.31 83.13 103.7 80 109.4 80h89.59v78.67H55.82L95.48 88.15zM400 416c0 8.822-7.178 16-16 16H64c-8.822 0-16-7.178-16-16V206.7h352V416z"/></svg>

<svg xmlns="http://www.w3.org/2000/svg" viewBox="0 0 448 512"><!-- Font Awesome Pro 6.0.0-alpha2 by @fontawesome - https://fontawesome.com License - https://fontawesome.com/license (Commercial License) --><path d="M183.031 376.969C187.719 381.656 193.859 384 200 384S212.281 381.656 216.969 376.969L312.969 280.969C322.344 271.594 322.344 256.406 312.969 247.031S288.406 237.656 279.031 247.031L200 326.062L168.969 295.031C159.594 285.656 144.406 285.656 135.031 295.031S125.656 319.594 135.031 328.969L183.031 376.969ZM439.781 145.387L394.352 64.623C383.016 44.471 361.691 32 338.57 32H109.43C86.309 32 64.984 44.471 53.648 64.623L8.219 145.387C2.83 154.967 0 165.773 0 176.764V416C0 451.346 28.654 480 64 480H384C419.346 480 448 451.346 448 416V176.764C448 165.773 445.17 154.967 439.781 145.387ZM247.016 80H338.57C344.342 80 349.686 83.125 352.516 88.154L392.182 158.672H247.016V80ZM95.484 88.154C98.314 83.125 103.658 80 109.43 80H199.016V158.672H55.818L95.484 88.154ZM400 416C400 424.822 392.822 432 384 432H64C55.178 432 48 424.822 48 416V206.672H400V416Z"/></svg>
